static/img/menus/ico-air-byte.svg

<svg width="16" height="16" viewBox="0 0 16 16" fill="none" xmlns="http://www.w3.org/2000/svg">
<path d="M2 12.6667H14" stroke="currentColor" stroke-linecap="round" stroke-linejoin="round"/>
<path d="M2 12.6667L3.33333 11.3333" stroke="currentColor" stroke-linecap="round" stroke-linejoin="round"/>
<path d="M2 12.6667L3.33333 14" stroke="currentColor" stroke-linecap="round" stroke-linejoin="round"/>
<path d="M2 3.33334H14" stroke="currentColor" stroke-linecap="round" stroke-linejoin="round"/>
<path d="M14 3.33333L12.6667 2" stroke="currentColor" stroke-linecap="round" stroke-linejoin="round"/>
<path d="M14 3.33334L12.6667 4.66667" stroke="currentColor" stroke-linecap="round" stroke-linejoin="round"/>
<path d="M11.3334 10.8366H10.6806V7.04886C10.6806 6.83126 10.6831 6.65664 10.6882 6.52508C10.6933 6.3935 10.7008 6.25687 10.7109 6.11518C10.63 6.19614 10.5566 6.26446 10.4908 6.32012C10.425 6.37579 10.3415 6.44664 10.2403 6.53266L9.6634 7.00326L9.31427 6.55544L10.7793 5.41682H11.3334V10.8366Z" fill="currentColor"/>
<path d="M8.26467 8.11914C8.26467 8.70107 8.20401 9.20207 8.08254 9.62207C7.96107 10.0371 7.76874 10.3559 7.50561 10.5785C7.24247 10.8012 6.89327 10.9125 6.4581 10.9125C5.84577 10.9125 5.39286 10.6671 5.09935 10.1762C4.8109 9.68027 4.66667 8.9946 4.66667 8.11914C4.66667 7.53214 4.72487 7.03114 4.84126 6.61617C4.96271 6.20121 5.15501 5.88493 5.41816 5.66733C5.6813 5.44467 6.02795 5.33334 6.4581 5.33334C7.06534 5.33334 7.51827 5.57877 7.81687 6.06964C8.11541 6.55544 8.26467 7.2386 8.26467 8.11914ZM5.33466 8.11914C5.33466 8.863 5.41816 9.41967 5.58516 9.78907C5.75721 10.1585 6.04819 10.3432 6.4581 10.3432C6.86294 10.3432 7.15141 10.1611 7.32347 9.79667C7.50054 9.42727 7.58914 8.86807 7.58914 8.11914C7.58914 7.38034 7.50054 6.8262 7.32347 6.45676C7.15141 6.08735 6.86294 5.90264 6.4581 5.90264C6.04819 5.90264 5.75721 6.08735 5.58516 6.45676C5.41816 6.8262 5.33466 7.38034 5.33466 8.11914Z" fill="currentColor"/>
</svg>

<svg xmlns="http://www.w3.org/2000/svg" width="16" height="16" fill="none" viewBox="0 0 16 16"><path stroke="currentColor" stroke-linecap="round" stroke-linejoin="round" d="M2 12.667h12M2 12.667l1.333-1.334M2 12.667 3.333 14M2 3.333h12M14 3.333 12.667 2M14 3.333l-1.333 1.334"/><path fill="currentColor" d="M11.333 10.837h-.652V7.049q0-.327.007-.524.008-.197.023-.41-.121.122-.22.205l-.25.213-.578.47-.349-.448 1.465-1.138h.554zM8.265 8.12q0 .872-.182 1.502-.183.622-.577.957-.396.333-1.048.333-.918 0-1.359-.736-.432-.743-.432-2.057 0-.88.174-1.503.183-.622.577-.949.395-.333 1.04-.334.91 0 1.359.737.447.728.448 2.05m-2.93 0q0 1.115.25 1.67.258.553.873.553.607 0 .865-.546.267-.555.266-1.678 0-1.108-.266-1.662-.258-.554-.865-.554-.614 0-.873.554-.25.554-.25 1.662"/></svg>
